build/category/CreatePullRequestSolid.svg

<svg xmlns="http://www.w3.org/2000/svg" fill="none" viewBox="0 0 24 24" focusable="false"><path d="M0 0H24V24H0z"/><path fill="#74767B" fill-rule="evenodd" d="M14.2015 3.89402C14.4636 3.64873 14.4773 3.2374 14.232 2.97528C13.9867 2.71317 13.5754 2.69952 13.3132 2.94481L10.5612 5.52013C10.5509 5.5296 10.5408 5.53946 10.5309 5.54971C10.5001 5.58186 10.4731 5.61646 10.4501 5.6529C10.4097 5.71685 10.3816 5.78621 10.3657 5.85767C10.3555 5.90347 10.3501 5.9511 10.3501 5.99998C10.3501 6.19297 10.4342 6.36631 10.5678 6.48535L13.3088 9.09798C13.5687 9.34566 13.9801 9.33578 14.2278 9.07593C14.4755 8.81607 14.4656 8.40463 14.2058 8.15695L12.6247 6.64998L15.0001 6.64998C16.298 6.64998 17.3501 7.70211 17.3501 8.99998L17.3501 12.7135C17.3501 13.0725 17.6411 13.3635 18.0001 13.3635C18.3591 13.3635 18.6501 13.0725 18.6501 12.7135L18.6501 8.99998C18.6501 6.98414 17.0159 5.34998 15.0001 5.34998L12.6456 5.34998L14.2015 3.89402ZM6.64639 8.93019C6.64884 8.95312 6.6501 8.9764 6.6501 8.99998L6.6501 20.359C6.6501 20.718 6.35908 21.009 6.0001 21.009C5.64111 21.009 5.3501 20.718 5.3501 20.359L5.3501 8.99998C5.3501 8.97642 5.35135 8.95315 5.3538 8.93023C4.00754 8.63469 3 7.43501 3 6C3 4.34315 4.34315 3 6 3C7.65685 3 9 4.34315 9 6C9 7.43494 7.99256 8.63457 6.64639 8.93019ZM18.0001 14.6301C18.3591 14.6301 18.6501 14.9211 18.6501 15.2801L18.6501 17.1696L20.5395 17.1696C20.8984 17.1696 21.1895 17.4606 21.1895 17.8196C21.1895 18.1785 20.8984 18.4696 20.5395 18.4696L18.6501 18.4696L18.6501 20.359C18.6501 20.718 18.3591 21.009 18.0001 21.009C17.6411 21.009 17.3501 20.718 17.3501 20.359L17.3501 18.4696L15.4605 18.4696C15.1015 18.4696 14.8105 18.1785 14.8105 17.8196C14.8105 17.4606 15.1015 17.1696 15.4605 17.1696L17.3501 17.1696L17.3501 15.2801C17.3501 14.9211 17.6411 14.6301 18.0001 14.6301Z"/><path fill="#74767B" fill-rule="evenodd" d="M14.0348 4.04998L14.2007 3.89476L14.2015 3.89402C14.4636 3.64873 14.4773 3.2374 14.232 2.97528C13.9867 2.71317 13.5754 2.69952 13.3132 2.94481L13.3126 2.94538L10.743 5.34998L10.5612 5.52013C10.558 5.52305 10.5548 5.526 10.5517 5.52899C10.5447 5.53571 10.5377 5.54262 10.5309 5.54971C10.5001 5.58186 10.4731 5.61646 10.4501 5.6529C10.4097 5.71685 10.3816 5.78621 10.3657 5.85767C10.3555 5.90347 10.3501 5.9511 10.3501 5.99998C10.3501 6.17727 10.4211 6.33797 10.5362 6.45524L10.5678 6.48535L10.7405 6.64998L13.3087 9.09782L13.3088 9.09798C13.5687 9.34566 13.9801 9.33578 14.2278 9.07593C14.4755 8.81607 14.4656 8.40463 14.2058 8.15695L13.9886 7.94998L12.6247 6.64998L14.5089 6.64998L15.0001 6.64998C15.6478 6.64998 16.2342 6.91199 16.6593 7.33579C16.6601 7.33662 16.661 7.33745 16.6618 7.33828C16.6626 7.33911 16.6635 7.33994 16.6643 7.34078C17.0881 7.76584 17.3501 8.35231 17.3501 8.99998L17.3501 12.7135C17.3501 13.01 17.5486 13.2601 17.82 13.3382C17.8772 13.3546 17.9376 13.3635 18.0001 13.3635C18.0626 13.3635 18.123 13.3546 18.1802 13.3382C18.4516 13.2601 18.6501 13.01 18.6501 12.7135L18.6501 8.99998C18.6501 8.62004 18.592 8.25366 18.4843 7.90923C18.4207 7.70578 18.3398 7.50999 18.2432 7.32358C18.0704 6.99001 17.8477 6.68648 17.5849 6.42292C17.5836 6.42162 17.5823 6.42033 17.581 6.41904C17.5797 6.41775 17.5785 6.41646 17.5772 6.41517C17.3136 6.15239 17.0101 5.92966 16.6765 5.75688C16.4901 5.66033 16.2943 5.57937 16.0909 5.51575C15.7464 5.40803 15.38 5.34998 15.0001 5.34998L12.6456 5.34998L14.0348 4.04998ZM18.1802 14.6554C18.123 14.6389 18.0626 14.6301 18.0001 14.6301C17.9376 14.6301 17.8772 14.6389 17.82 14.6554C17.5486 14.7335 17.3501 14.9836 17.3501 15.2801L17.3501 17.1696L16.0501 17.1696L15.4617 17.1696L15.4605 17.1696C15.1015 17.1696 14.8105 17.4606 14.8105 17.8196C14.8105 18.1785 15.1015 18.4696 15.4605 18.4696L17.3501 18.4696L17.3501 20.359C17.3501 20.718 17.6411 21.009 18.0001 21.009C18.3591 21.009 18.6501 20.718 18.6501 20.359L18.6501 18.4696L20.5395 18.4696C20.8984 18.4696 21.1895 18.1785 21.1895 17.8196C21.1895 17.4606 20.8984 17.1696 20.5395 17.1696L18.6501 17.1696L18.6501 15.2801C18.6501 14.9836 18.4516 14.7335 18.1802 14.6554ZM6.66154 8.92682C8.00011 8.62556 9 7.42955 9 6C9 4.34315 7.65685 3 6 3C4.34315 3 3 4.34315 3 6C3 7.42962 3.99999 8.62568 5.33865 8.92686C5.3437 8.928 5.34874 8.92912 5.3538 8.93023C5.35135 8.95315 5.3501 8.97642 5.3501 8.99998L5.3501 20.359C5.3501 20.718 5.64111 21.009 6.0001 21.009C6.35908 21.009 6.6501 20.718 6.6501 20.359L6.6501 9.03405L6.6501 8.99998C6.6501 8.9764 6.64884 8.95312 6.64639 8.93019C6.65145 8.92908 6.6565 8.92795 6.66154 8.92682ZM6.00006 7.74114L6.36756 7.66044C6.4539 7.64148 6.53773 7.6161 6.61905 7.58431C6.71468 7.54691 6.80685 7.50063 6.89554 7.44547C6.97236 7.39771 7.04453 7.34459 7.11207 7.28611C7.18699 7.22125 7.25621 7.14979 7.31973 7.07175C7.44456 6.91837 7.53866 6.75389 7.60202 6.57832C7.66734 6.39733 7.7 6.20456 7.7 6C7.7 5.86254 7.68431 5.72887 7.65294 5.59898C7.63156 5.51045 7.60289 5.42369 7.56694 5.33868C7.52863 5.24811 7.48324 5.16211 7.43077 5.08066C7.3655 4.97936 7.28927 4.88511 7.20208 4.79792C7.1149 4.71073 7.02065 4.6345 6.91934 4.56923C6.8379 4.51676 6.75189 4.47137 6.66132 4.43306C6.5763 4.3971 6.48953 4.36843 6.401 4.34705C6.27112 4.31568 6.13745 4.3 6 4.3C5.86255 4.3 5.72888 4.31568 5.599 4.34705C5.51047 4.36843 5.42369 4.3971 5.33868 4.43306C5.24811 4.47137 5.16211 4.51676 5.08066 4.56923C4.97935 4.6345 4.88511 4.71073 4.79792 4.79792C4.71073 4.88511 4.63449 4.97936 4.56922 5.08068C4.51675 5.16212 4.47137 5.24812 4.43306 5.33868C4.3971 5.42369 4.36843 5.51047 4.34705 5.599C4.31568 5.72888 4.3 5.86255 4.3 6C4.3 6.20457 4.33266 6.39735 4.39799 6.57834C4.46136 6.75392 4.55546 6.9184 4.68031 7.07179C4.74383 7.14984 4.81306 7.2213 4.88799 7.28617C4.95554 7.34464 5.02771 7.39776 5.10452 7.44552C5.19321 7.50067 5.28538 7.54694 5.38101 7.58433C5.46234 7.61613 5.54619 7.64151 5.63254 7.66047L6.00006 7.74114Z"/></svg>

<svg xmlns="http://www.w3.org/2000/svg" fill="none" viewBox="0 0 24 24" focusable="false"><g fill="#74767B" fill-rule="evenodd"><path d="M14.23 2.97c.24.26.23.67-.03.92l-1.56 1.45H15A3.66 3.66 0 0 1 18.65 9v3.71c0 .36-.3.65-.65.65-.36 0-.65-.29-.65-.65V9c0-1.3-1.06-2.36-2.35-2.36h-2.38l1.58 1.51c.26.25.27.66.02.92-.24.26-.66.27-.92.02l-2.74-2.61a.65.65 0 0 1-.21-.48c0-.05 0-.1.01-.15.02-.07.04-.14.09-.2.02-.04.05-.07.08-.11.01-.01.02-.02.03-.02l2.75-2.58a.65.65 0 0 1 .92.03M6.64 8.93c0 .02.01.04.01.07v11.35c0 .36-.3.65-.65.65-.36 0-.65-.29-.65-.65V8.93A3.002 3.002 0 0 1 6 3c1.65 0 3 1.34 3 3a3.01 3.01 0 0 1-2.36 2.93M18 14.63c.35 0 .65.29.65.65v1.88h1.88c.36 0 .65.3.65.65 0 .36-.29.65-.65.65h-1.88v1.89c0 .36-.3.65-.65.65-.36 0-.65-.29-.65-.65v-1.89h-1.89c-.36 0-.65-.29-.65-.65 0-.35.29-.65.65-.65h1.89v-1.88c0-.36.29-.65.65-.65"/><path d="m14.03 4.04.17-.15c.26-.25.27-.66.03-.92a.65.65 0 0 0-.92-.03l-2.57 2.4-.18.18h-.01l-.02.02c-.03.04-.06.07-.08.11-.05.06-.07.13-.09.2-.01.05-.01.1-.01.15 0 .17.07.33.18.45l.03.03.18.16 2.56 2.45c.26.25.68.24.92-.02.25-.26.24-.67-.02-.92l-.22-.2-1.36-1.31H15c.64 0 1.23.27 1.65.69h.01v.01c.42.42.69 1.01.69 1.66v3.71c0 .29.19.55.47.62q.075.03.18.03.09 0 .18-.03c.27-.07.47-.33.47-.62V9c0-.38-.06-.75-.17-1.1-.06-.2-.15-.39-.24-.58-.17-.34-.4-.64-.66-.9v-.01h-.01c-.26-.26-.56-.49-.9-.66A3.601 3.601 0 0 0 15 5.34h-2.36zm4.15 10.61c-.06-.02-.12-.02-.18-.02-.07 0-.13 0-.18.02-.28.08-.47.33-.47.63v1.88h-1.89c-.36 0-.65.3-.65.65 0 .36.29.65.65.65h1.89v1.89c0 .36.29.65.65.65.35 0 .65-.29.65-.65v-1.89h1.88c.36 0 .65-.29.65-.65 0-.35-.29-.65-.65-.65h-1.88v-1.88c0-.3-.2-.55-.47-.63M6.66 8.92A3 3 0 0 0 9 6c0-1.66-1.35-3-3-3-1.66 0-3 1.34-3 3 0 1.42 1 2.62 2.33 2.92.01 0 .01 0 .02.01v11.42c0 .36.29.65.65.65.35 0 .65-.29.65-.65V9c0-.03-.01-.05-.01-.07.01-.01.01-.01.02-.01M6 7.74l.36-.08q.13-.03.25-.08.15-.06.28-.14.12-.07.22-.16.11-.1.2-.21.19-.23.29-.5.09-.27.09-.57 0-.21-.04-.41-.03-.13-.09-.26t-.13-.25q-.1-.16-.23-.29t-.29-.23q-.12-.07-.25-.13t-.26-.09q-.2-.05-.4-.05-.21 0-.41.05-.13.03-.26.09t-.25.13q-.16.1-.29.23t-.23.29q-.07.12-.13.25t-.09.26q-.04.2-.04.41 0 .3.09.57.1.27.29.5.09.11.2.21.1.09.22.16.13.08.28.14.12.05.25.08z"/></g></svg>
